packages/core/src/svgs/c3.svg

<svg width="24" height="24" viewBox="0 0 24 24" fill="none" xmlns="http://www.w3.org/2000/svg">
<g clip-path="url(#clip0_31_7653)">
<path d="M0 0H24V24H0V0Z" fill="#F0F3FA"/>
<path d="M17.4342 10.1141C17.4342 7.74412 13.8171 5.93555 12.1285 5.93555C6.46279 5.93555 4.28564 11.2498 4.28564 13.4913C4.28564 15.7327 6.49279 17.0741 7.67993 17.6013C8.87136 18.1284 11.2285 19.2855 12.8399 19.2855C17.1256 19.2855 17.0056 14.7984 16.9585 13.9284C16.9156 13.0541 17.4342 11.9098 17.4342 10.1184V10.1141Z" fill="url(#paint0_linear_31_7653)"/>
<path d="M12.1286 4.71436C16.8729 4.71436 18.8572 9.2015 18.8572 11.6829C18.8572 16.3672 15.3601 17.6744 13.5943 17.3572C11.4172 16.9715 10.9543 16.9972 8.60149 16.5772C6.65577 16.2301 5.66577 14.3486 5.66577 10.5858C5.66577 6.47578 9.39863 4.71436 12.1286 4.71436Z" fill="#CED4CC"/>
<path d="M5.8072 9.24444C6.50417 8.21683 7.44847 7.38108 8.55315 6.81414C9.65783 6.24719 10.8874 5.96727 12.1286 6.00015C13.8172 6.00015 17.4343 7.74444 17.4343 10.1187C17.4343 11.1259 17.2715 11.9273 17.1343 12.5916C17.0272 13.1059 16.9415 13.543 16.9629 13.9287C16.9801 14.3187 17.0143 15.4502 16.6543 16.5687C15.8229 17.1516 14.8972 17.5716 14.1429 17.5716C13.1658 17.5759 12.1672 17.2844 11.1986 17.1516C10.5043 17.0573 9.7972 16.7916 8.60149 16.5773C6.65577 16.2302 5.66577 14.3487 5.66577 10.5859C5.66577 10.1059 5.7172 9.66015 5.8072 9.24444Z" fill="url(#paint1_linear_31_7653)"/>
<path d="M13.7143 9.79265C13.7143 7.77836 11.4514 6.99408 10.3243 6.85693C7.26854 6.85693 5.14282 9.03408 5.14282 11.9569C5.14282 14.8712 8.41282 15.4284 10.5043 15.4284C12.6 15.4284 13.7143 12.3084 13.7143 9.79265Z" fill="#6D7B55"/>
<path d="M12.4286 9.91721C12.4286 8.40436 10.7314 7.81721 9.88286 7.71436C7.59429 7.71436 6 9.34721 6 11.5372C6 13.7229 8.45143 14.1429 10.0243 14.1429C11.5929 14.1429 12.4286 11.8029 12.4286 9.91721Z" fill="#525344"/>
<path d="M11.5715 10.0371C11.5715 9.02998 10.4401 8.63998 9.87439 8.57141C9.53361 8.5559 9.1933 8.61095 8.87479 8.73311C8.55627 8.85526 8.26642 9.04189 8.0234 9.28129C7.78038 9.52069 7.58943 9.8077 7.4625 10.1243C7.33558 10.441 7.27543 10.7804 7.28582 11.1214C7.28582 12.5786 8.91867 12.8571 9.96867 12.8571C11.0144 12.8571 11.5715 11.2971 11.5715 10.0371Z" fill="#31302D"/>
<path d="M13.7144 10.7744C13.4844 10.4843 13.191 10.2507 12.8567 10.0917C12.5223 9.93274 12.156 9.85253 11.7858 9.85725C10.9844 9.85725 10.2815 10.2215 9.85725 10.7744C9.6264 10.4831 9.3316 10.2489 8.99567 10.0898C8.65975 9.93079 8.29173 9.85121 7.9201 9.85725C6.62582 9.85725 5.57153 10.8173 5.57153 12.0001H6.41153C6.41153 11.2415 7.08868 10.573 7.92439 10.573C8.75582 10.573 9.43296 11.2415 9.43296 12.0001H10.2772C10.2772 11.2415 10.9501 10.573 11.7858 10.573C12.6215 10.573 13.2944 11.2415 13.2944 12.0001H14.143C14.143 11.2415 14.8201 10.573 15.6515 10.573C16.4872 10.573 17.1601 11.2415 17.1601 12.0001H18.0001C18.0001 10.8173 16.9458 9.85725 15.6472 9.85725C14.8501 9.85725 14.143 10.2215 13.7187 10.7744H13.7144Z" fill="#FFFFFE"/>
<path d="M13.7144 13.2257C13.4844 13.5158 13.191 13.7494 12.8567 13.9084C12.5223 14.0674 12.156 14.1476 11.7858 14.1429C11.4156 14.1476 11.0493 14.0674 10.715 13.9084C10.3806 13.7494 10.0872 13.5158 9.85725 13.2257C9.6264 13.517 9.3316 13.7512 8.99567 13.9103C8.65975 14.0693 8.29173 14.1489 7.9201 14.1429C6.62582 14.1429 5.57153 13.1829 5.57153 12H6.41153C6.41153 12.7586 7.08868 13.4271 7.92439 13.4271C8.75582 13.4271 9.43296 12.7586 9.43296 12H10.2772C10.2772 12.7586 10.9501 13.4271 11.7858 13.4271C12.6215 13.4271 13.2944 12.7586 13.2944 12H14.143C14.143 12.7586 14.8201 13.4271 15.6515 13.4271C16.4872 13.4271 17.1601 12.7586 17.1601 12H18.0001C18.0001 13.1829 16.9458 14.1429 15.6472 14.1429C15.2771 14.1476 14.9107 14.0674 14.5764 13.9084C14.2421 13.7494 13.9486 13.5158 13.7187 13.2257H13.7144Z" fill="url(#paint2_linear_31_7653)"/>
</g>
<defs>
<linearGradient id="paint0_linear_31_7653" x1="10.8685" y1="14.7855" x2="9.58707" y2="18.4284" gradientUnits="userSpaceOnUse">
<stop stop-color="#A6BEA7"/>
<stop offset="1" stop-color="#CBD8C8"/>
</linearGradient>
<linearGradient id="paint1_linear_31_7653" x1="8.19863" y1="10.3159" x2="17.2329" y2="15.283" gradientUnits="userSpaceOnUse">
<stop stop-color="#89A682"/>
<stop offset="1" stop-color="#BFD2AD"/>
</linearGradient>
<linearGradient id="paint2_linear_31_7653" x1="10.0715" y1="12.7029" x2="9.97725" y2="11.5629" gradientUnits="userSpaceOnUse">
<stop stop-color="#21AD4C"/>
<stop offset="1" stop-color="#3B493E"/>
</linearGradient>
<clipPath id="clip0_31_7653">
<rect width="24" height="24" fill="white"/>
</clipPath>
</defs>
</svg>

<svg xmlns="http://www.w3.org/2000/svg" width="24" height="24" fill="none" viewBox="0 0 24 24"><g clip-path="url(#a)"><path fill="#F0F3FA" d="M0 0h24v24H0z"/><path fill="url(#b)" d="M17.434 10.114c0-2.37-3.617-4.178-5.305-4.178-5.666 0-7.843 5.314-7.843 7.555 0 2.242 2.207 3.583 3.394 4.11 1.191.527 3.549 1.685 5.16 1.685 4.286 0 4.166-4.488 4.119-5.358-.043-.874.475-2.018.475-3.81z"/><path fill="#CED4CC" d="M12.129 4.714c4.744 0 6.728 4.487 6.728 6.969 0 4.684-3.497 5.991-5.263 5.674-2.177-.386-2.64-.36-4.993-.78-1.945-.347-2.935-2.228-2.935-5.991 0-4.11 3.733-5.872 6.463-5.872"/><path fill="url(#c)" d="M5.807 9.244A7.4 7.4 0 0 1 12.13 6c1.688 0 5.305 1.744 5.305 4.119 0 1.007-.163 1.808-.3 2.473-.107.514-.192.951-.171 1.337.017.39.051 1.521-.309 2.64-.831.583-1.757 1.003-2.511 1.003-.977.004-1.976-.288-2.944-.42-.695-.095-1.402-.36-2.598-.575-1.945-.347-2.935-2.228-2.935-5.991 0-.48.051-.926.141-1.342"/><path fill="#6D7B55" d="M13.714 9.793c0-2.015-2.263-2.799-3.39-2.936-3.055 0-5.181 2.177-5.181 5.1 0 2.914 3.27 3.471 5.361 3.471 2.096 0 3.21-3.12 3.21-5.635"/><path fill="#525344" d="M12.429 9.917c0-1.513-1.698-2.1-2.546-2.203C7.594 7.714 6 9.347 6 11.537c0 2.186 2.451 2.606 4.024 2.606 1.569 0 2.405-2.34 2.405-4.226"/><path fill="#31302D" d="M11.572 10.037c0-1.007-1.132-1.397-1.698-1.466a2.477 2.477 0 0 0-2.588 2.55c0 1.458 1.633 1.736 2.683 1.736 1.045 0 1.603-1.56 1.603-2.82"/><path fill="#FFFFFE" d="M13.714 10.774a2.42 2.42 0 0 0-1.928-.917c-.802 0-1.505.365-1.929.917a2.42 2.42 0 0 0-1.937-.917c-1.294 0-2.348.96-2.348 2.143h.84c0-.758.677-1.427 1.512-1.427.832 0 1.509.668 1.509 1.427h.844c0-.758.673-1.427 1.509-1.427s1.508.668 1.508 1.427h.849c0-.758.677-1.427 1.508-1.427.836 0 1.51.668 1.51 1.427H18c0-1.183-1.055-2.143-2.354-2.143-.797 0-1.504.365-1.928.917z"/><path fill="url(#d)" d="M13.714 13.226a2.42 2.42 0 0 1-1.928.917 2.42 2.42 0 0 1-1.929-.917 2.42 2.42 0 0 1-1.937.917c-1.294 0-2.348-.96-2.348-2.143h.84c0 .759.677 1.427 1.512 1.427.832 0 1.509-.668 1.509-1.427h.844c0 .759.673 1.427 1.509 1.427s1.508-.668 1.508-1.427h.849c0 .759.677 1.427 1.508 1.427.836 0 1.51-.668 1.51-1.427H18c0 1.183-1.055 2.143-2.354 2.143a2.42 2.42 0 0 1-1.928-.917z"/></g><defs><linearGradient id="b" x1="10.868" x2="9.587" y1="14.786" y2="18.428" gradientUnits="userSpaceOnUse"><stop stop-color="#A6BEA7"/><stop offset="1" stop-color="#CBD8C8"/></linearGradient><linearGradient id="c" x1="8.199" x2="17.233" y1="10.316" y2="15.283" gradientUnits="userSpaceOnUse"><stop stop-color="#89A682"/><stop offset="1" stop-color="#BFD2AD"/></linearGradient><linearGradient id="d" x1="10.072" x2="9.977" y1="12.703" y2="11.563" gradientUnits="userSpaceOnUse"><stop stop-color="#21AD4C"/><stop offset="1" stop-color="#3B493E"/></linearGradient><clipPath id="a"><path fill="#fff" d="M0 0h24v24H0z"/></clipPath></defs></svg>
